X:5
T:5-time waltz (3)
S: learned from Alden Hackmann
O:As played at Over the Water Music and Dance Camp, 2000
N:danced with pulse on 1 and 3 (23)
M:5/4
L:1/4
A:Variation on that Bavarian one, with the B played as A.
K:G
d|\
cA BGd | cA BGD/E/ | FA GBd|cA G2 :|
|:D/E/|\
FA GBd | cA BGD/E/ | FA GBd| cA B2|
D|FA GBd | cA BGD/E/ | FA GBd| cA G2:|
